assets/sonr-icons/text-right.svg

<svg xmlns="http://www.w3.org/2000/svg" width="24" height="24" fill="none" viewBox="0 0 24 24"><path fill="#000" d="M21 4C21 3.448 20.552 3 20 3H4C3.448 3 3 3.448 3 4C3 4.552 3.448 5 4 5H20C20.552 5 21 4.552 21 4ZM21 12C21 11.448 20.552 11 20 11H4C3.448 11 3 11.448 3 12C3 12.552 3.448 13 4 13H20C20.552 13 21 12.552 21 12ZM20 19C20.552 19 21 19.448 21 20C21 20.552 20.552 21 20 21H4C3.448 21 3 20.552 3 20C3 19.448 3.448 19 4 19H20ZM21 8C21 7.448 20.552 7 20 7H12C11.448 7 11 7.448 11 8C11 8.552 11.448 9 12 9H20C20.552 9 21 8.552 21 8ZM20 15C20.552 15 21 15.448 21 16C21 16.552 20.552 17 20 17H12C11.448 17 11 16.552 11 16C11 15.448 11.448 15 12 15H20Z"/></svg>

<svg xmlns="http://www.w3.org/2000/svg" width="24" height="24" fill="none"><path fill="currentColor" d="M21 4a1 1 0 0 0-1-1H4a1 1 0 0 0 0 2h16a1 1 0 0 0 1-1m0 8a1 1 0 0 0-1-1H4a1 1 0 0 0 0 2h16a1 1 0 0 0 1-1m-1 7a1 1 0 0 1 0 2H4a1 1 0 0 1 0-2zm1-11a1 1 0 0 0-1-1h-8a1 1 0 0 0 0 2h8a1 1 0 0 0 1-1m-1 7a1 1 0 0 1 0 2h-8a1 1 0 0 1 0-2z"/></svg>
